X: 35191
T: Rooney's Favourite
R: jig
M: 6/8
K: Ddorian
|:dcA GEA|DED DCA,|C2 G, CDE|GcA GAc|
dcA GEA|DED DCA,|CDE GcA|GED D3:|
|:DFA dfe|d^cd AFD|CEG c2d|edc AGE|
DFA dfe|d^cd AB=c|dcA GEA|1 DED D2A,:|2 DED D3||

